X: 11
T:MacPherson's Blade - Variation on Part B
M:2/4
L:1/16
Q:112
C:Variation by James G-H
R:March
K:Em
B2 |e2fg f2b2 |"(slide down from A to D)"b4 e2 A2 |d2ef e2a2 |"(slide do
wn from B to E)"a4 d2B2 |e2fg f2g2 |efge b2B2 |eBGE B2^d2 |e4- e2 || !
B2 |e2fg f2g2 |z2">"[E2B2e2] z2A2 |d2ef e2f2 |z2">"[F2d2] z2ef |gfed g2G
2 |A2Bc B2^d2    |eBGE B2B,2 |E4- E2 |]
